X: 561
T: Silken Cravat., The
T: an cara.bat sioda.
R:waltz
N:"Slow.""Collected from J. O'Neill."
Z:transcribed by J.B. Walsh walsh@math.ubc.ca
M:3/4
L:1/8
%Q:60
K:Dm
(A/G/) FE|"f"D2 (d>e) fd|(cA) (GF) (GA)|B2 (AG) FE|"p"D3:|
A2 "cresc."{=B^c}dd|(d2 e)f ec|{f}g2 "dim."(fe) (dA)|G>F .DR(.E .F.G)|A3 (A/G/) FE|
D2 de fd|cA GF GA|"p"B2 AG F{F}E|"pp"D3||


